img/shops-pros__01.svg

<svg width="60" height="60" viewBox="0 0 60 60" fill="none" xmlns="http://www.w3.org/2000/svg">
<path d="M55.8941 24.5102C54.8112 24.1911 53.99 23.3924 53.6412 22.3187C53.2923 21.245 53.4872 20.1161 54.1758 19.2214C55.7618 17.1609 55.7989 14.4702 54.2706 12.3666C52.7422 10.2629 50.1716 9.46675 47.7219 10.3385C46.6583 10.717 45.5245 10.5534 44.6111 9.8898C43.6977 9.22617 43.1918 8.19843 43.223 7.06992C43.2949 4.4707 41.7435 2.27191 39.2705 1.46847C36.7977 0.665033 34.25 1.53187 32.7804 3.67699C32.1423 4.60839 31.1289 5.14242 30 5.14242C28.871 5.14242 27.8577 4.60828 27.2196 3.67687C25.75 1.53175 23.2024 0.665033 20.7295 1.46835C18.2566 2.27191 16.7051 4.47058 16.777 7.06992C16.8083 8.19832 16.3024 9.22617 15.3891 9.88968C14.4757 10.5533 13.3419 10.7168 12.2782 10.3384C9.8284 9.46687 7.25789 10.2628 5.72953 12.3664C4.20117 14.4701 4.23844 17.1608 5.82434 19.2213C6.51293 20.116 6.70781 21.2449 6.35895 22.3186C6.01008 23.3923 5.18895 24.191 4.10602 24.5101C1.61168 25.245 0 27.4 0 30.0001C0 32.6004 1.61156 34.7553 4.1059 35.4902C5.18883 35.8093 6.00996 36.608 6.35883 37.6818C6.7077 38.7555 6.51293 39.8843 5.82434 40.7789C4.23832 42.8394 4.20105 45.5302 5.72941 47.6338C7.25789 49.7374 9.82828 50.5332 12.2782 49.6618C13.3419 49.2834 14.4757 49.4469 15.3889 50.1105C16.3023 50.7741 16.8082 51.8019 16.777 52.9304C16.7051 55.5296 18.2566 57.7283 20.7295 58.5319C21.3422 58.731 21.9593 58.8275 22.5635 58.8274C24.3984 58.8274 26.1141 57.937 27.2196 56.3234C27.8577 55.3921 28.8711 54.8579 30 54.8579C31.129 54.8579 32.1424 55.3921 32.7805 56.3234C34.2502 58.4685 36.7976 59.3353 39.2706 58.5319C41.7435 57.7283 43.295 55.5296 43.2231 52.9304C43.1919 51.8019 43.6978 50.7741 44.6112 50.1104C45.5245 49.447 46.6581 49.2832 47.722 49.6618C50.1721 50.5334 52.7423 49.7374 54.2707 47.6338C55.7991 45.5302 55.7619 42.8394 54.1758 40.7789C53.4872 39.8843 53.2924 38.7553 53.6413 37.6816C53.9902 36.608 54.8113 35.8092 55.8942 35.4901C58.3884 34.7553 60 32.6005 60 30.0001C60 27.4 58.3883 25.245 55.8941 24.5102ZM55.2292 33.2332C53.4172 33.767 51.9871 35.1582 51.4034 36.9546C50.8196 38.751 51.159 40.7171 52.3112 42.2141C53.4448 43.6868 53.0832 45.265 52.367 46.2509C51.6509 47.2368 50.2615 48.0681 48.5106 47.4451C46.7309 46.812 44.7563 47.0966 43.2281 48.2069C41.7 49.3172 40.8189 51.1073 40.871 52.9956C40.9225 54.8532 39.7024 55.9175 38.5436 56.2942C37.3843 56.6708 35.7719 56.5268 34.7216 54.9936C33.654 53.4354 31.8889 52.505 30.0001 52.505C28.1113 52.505 26.3462 53.4354 25.2786 54.9936C24.2283 56.5267 22.6159 56.6708 21.4567 56.2942C20.2978 55.9177 19.0777 54.8534 19.1291 52.9956C19.1814 51.1073 18.3002 49.3173 16.7721 48.2071C15.7805 47.4865 14.6007 47.1137 13.4084 47.1137C12.7632 47.1137 12.1144 47.2228 11.4895 47.4451C9.73863 48.0681 8.34937 47.2366 7.63313 46.2509C6.91688 45.265 6.55535 43.6869 7.68902 42.2141C8.84109 40.7173 9.18047 38.7511 8.59676 36.9546C8.01305 35.1582 6.58289 33.767 4.77094 33.2333C2.98816 32.7081 2.35301 31.2189 2.35301 30.0003C2.35301 28.7818 2.98816 27.2926 4.77082 26.7674C6.58277 26.2336 8.01293 24.8425 8.59664 23.0461C9.18035 21.2497 8.84098 19.2834 7.68891 17.7866C6.55535 16.3139 6.91676 14.7357 7.63313 13.7498C8.34926 12.7639 9.73863 11.9327 11.4895 12.5556C13.269 13.1887 15.2439 12.904 16.7721 11.7936C18.3002 10.6833 19.1814 8.89324 19.1291 7.00511C19.0777 5.14734 20.2978 4.08304 21.4567 3.70652C22.6154 3.33011 24.2282 3.4739 25.2786 5.00707C26.3462 6.56531 28.1113 7.49566 30.0001 7.49566C31.8891 7.49566 33.654 6.56531 34.7216 5.00707C35.7718 3.4739 37.3845 3.32999 38.5434 3.70652C39.7024 4.08304 40.9225 5.14734 40.871 7.00523C40.8187 8.89335 41.7 10.6835 43.228 11.7937C44.7562 12.904 46.7309 13.1889 48.5106 12.5556C50.2616 11.9326 51.6507 12.7641 52.367 13.75C53.0832 14.7357 53.4448 16.3139 52.3112 17.7867C51.1591 19.2836 50.8198 21.2497 51.4035 23.0461C51.9872 24.8426 53.4173 26.2337 55.2293 26.7675C57.012 27.2926 57.6471 28.7818 57.6471 30.0005C57.6471 31.2191 57.0118 32.708 55.2292 33.2332Z" fill="#F04E23"/>
<path d="M30 11.4219C25.9095 11.4219 22.0293 12.7256 18.779 15.1921C15.6347 17.5782 13.2908 20.9666 12.1793 24.733C11.9953 25.3562 12.3515 26.0104 12.9747 26.1943C13.0859 26.2271 13.1979 26.2427 13.3082 26.2427C13.8162 26.2427 14.2849 25.911 14.436 25.3989C15.4065 22.1105 17.454 19.1513 20.2014 17.0664C23.0391 14.913 26.4273 13.7748 30 13.7748C30.6498 13.7748 31.1765 13.248 31.1765 12.5983C31.1765 11.9485 30.6497 11.4219 30 11.4219Z" fill="#F04E23"/>
<path d="M44.308 39.9779C43.8015 39.5707 43.0609 39.6513 42.654 40.1577C39.5543 44.0139 34.9422 46.2255 30.0007 46.2255C29.3509 46.2255 28.8242 46.7522 28.8242 47.4019C28.8242 48.0516 29.351 48.5784 30.0007 48.5784C35.6587 48.5784 40.9391 46.0464 44.4878 41.6317C44.895 41.1255 44.8145 40.3848 44.308 39.9779Z" fill="#F04E23"/>
<path d="M45.8835 38.5097C46.5441 38.5097 47.0795 37.9742 47.0795 37.3137C47.0795 36.6532 46.5441 36.1177 45.8835 36.1177C45.223 36.1177 44.6875 36.6532 44.6875 37.3137C44.6875 37.9742 45.223 38.5097 45.8835 38.5097Z" fill="#F04E23"/>
<path d="M27.7039 39.1773L19.7326 31.206C19.3894 30.8627 18.8374 31.1201 18.445 31.5126C18.0403 31.9172 17.7951 32.4569 18.1384 32.8002L23.0684 37.7302L16.1273 35.5227C15.0235 35.1794 14.6678 35.2897 14.0915 35.8661C13.6868 36.2707 13.4537 36.8227 13.7971 37.166L21.7562 45.1251C22.0873 45.4561 22.6514 45.2353 23.0561 44.8307C23.4487 44.4382 23.6816 43.8619 23.3505 43.5307L18.4206 38.6008L25.9872 40.894C26.5759 41.0658 27.0296 40.8572 27.4095 40.4772C27.8021 40.0848 28.035 39.5085 27.7039 39.1773Z" fill="#F04E23"/>
<path d="M34.5609 31.9537C34.1808 31.5735 33.6658 31.4264 33.347 31.7452L29.8765 35.2157L27.4114 32.7508L29.2754 30.8868C29.6189 30.5435 29.4472 30.0529 29.1651 29.7708C28.834 29.4398 28.3435 29.3171 28.0247 29.636L26.1607 31.5L23.7077 29.0471L27.1782 25.5766C27.4971 25.2577 27.3499 24.7427 26.9697 24.3625C26.6387 24.0315 26.1237 23.8352 25.7803 24.1785L21.4144 28.5444C21.0588 28.9 20.8871 29.4151 21.2182 29.7462L29.1773 37.7053C29.5084 38.0364 30.0235 37.8648 30.3791 37.5091L34.7449 33.1433C35.0883 32.7999 34.8921 32.2849 34.5609 31.9537Z" fill="#F04E23"/>
<path d="M43.2435 23.7126L37.9579 13.5708C37.9334 13.5217 37.8843 13.4482 37.8352 13.3991C37.4795 13.0434 36.6333 13.3255 36.1795 13.7793C35.9344 14.0245 35.7995 14.3311 35.9712 14.6255L40.6804 23.2099L35.3702 19.9846C34.9902 19.7516 34.4997 19.9724 34.1563 20.3158C33.8006 20.6714 33.58 21.1618 33.8128 21.5421L37.0381 26.8522L28.4536 22.1429C28.1592 21.9713 27.8528 22.1061 27.6074 22.3514C27.1536 22.8052 26.8716 23.6514 27.2272 24.007C27.2763 24.0561 27.3499 24.1051 27.3989 24.1296L37.5409 29.4152C38.0192 29.6727 38.6569 29.3784 39.1229 28.9124C39.5767 28.4586 39.8833 27.8087 39.6012 27.355L37.0872 23.2466L41.1831 25.7729C41.637 26.0549 42.287 25.7483 42.7406 25.2946C43.2067 24.8284 43.4886 24.2031 43.2435 23.7126Z" fill="#F04E23"/>
</svg>

<svg width="60" height="60" fill="none" xmlns="http://www.w3.org/2000/svg"><path d="M55.894 24.51a3.325 3.325 0 01-2.253-2.191 3.325 3.325 0 01.535-3.098c1.586-2.06 1.623-4.75.095-6.854-1.529-2.104-4.1-2.9-6.55-2.029a3.325 3.325 0 01-3.11-.448 3.325 3.325 0 01-1.388-2.82c.072-2.6-1.48-4.798-3.953-5.602-2.472-.803-5.02.064-6.49 2.209A3.325 3.325 0 0130 5.142a3.325 3.325 0 01-2.78-1.465c-1.47-2.145-4.018-3.012-6.49-2.209-2.473.804-4.025 3.003-3.953 5.602a3.325 3.325 0 01-1.388 2.82 3.325 3.325 0 01-3.11.448c-2.45-.871-5.021-.075-6.55 2.028-1.528 2.104-1.49 4.795.095 6.855.689.895.884 2.024.535 3.098a3.325 3.325 0 01-2.253 2.191C1.612 25.245 0 27.4 0 30s1.612 4.755 4.106 5.49a3.325 3.325 0 012.253 2.192 3.325 3.325 0 01-.535 3.097c-1.586 2.06-1.623 4.751-.095 6.855 1.529 2.103 4.1 2.9 6.55 2.028a3.325 3.325 0 013.11.449 3.325 3.325 0 011.388 2.82c-.072 2.599 1.48 4.797 3.953 5.6.612.2 1.23.297 1.834.296 1.834 0 3.55-.89 4.656-2.504A3.325 3.325 0 0130 54.858c1.129 0 2.142.534 2.78 1.465 1.47 2.145 4.018 3.012 6.49 2.209 2.473-.804 4.025-3.002 3.953-5.602a3.325 3.325 0 011.388-2.82 3.325 3.325 0 013.111-.448c2.45.871 5.02.075 6.549-2.028 1.528-2.104 1.49-4.795-.095-6.855a3.325 3.325 0 01-.535-3.097 3.325 3.325 0 012.253-2.192C58.388 34.755 60 32.6 60 30s-1.612-4.755-4.106-5.49zm-.665 8.723a5.72 5.72 0 00-2.918 8.981c1.134 1.473.772 3.051.056 4.037-.716.986-2.105 1.817-3.856 1.194a5.72 5.72 0 00-7.64 5.55c.051 1.858-1.169 2.922-2.327 3.3-1.16.376-2.772.232-3.822-1.301a5.721 5.721 0 00-9.443 0c-1.05 1.533-2.663 1.677-3.822 1.3-1.16-.376-2.38-1.44-2.328-3.298a5.72 5.72 0 00-5.72-5.882c-.646 0-1.295.109-1.92.331-1.75.623-3.14-.208-3.856-1.194-.716-.986-1.078-2.564.056-4.037a5.72 5.72 0 00-2.918-8.98C2.988 32.707 2.353 31.218 2.353 30s.635-2.707 2.418-3.233a5.72 5.72 0 002.918-8.98c-1.134-1.473-.772-3.051-.056-4.037.716-.986 2.106-1.817 3.856-1.194a5.72 5.72 0 007.64-5.55c-.051-1.859 1.169-2.923 2.328-3.3 1.158-.376 2.771-.232 3.822 1.301a5.721 5.721 0 009.443 0c1.05-1.533 2.663-1.677 3.821-1.3 1.16.376 2.38 1.44 2.328 3.298a5.72 5.72 0 007.64 5.55c1.75-.622 3.14.21 3.856 1.195.716.986 1.078 2.564-.056 4.037a5.72 5.72 0 002.918 8.98c1.783.526 2.418 2.015 2.418 3.233 0 1.22-.635 2.708-2.418 3.233z" fill="#F04E23"/><path d="M30 11.422a18.42 18.42 0 00-11.221 3.77 18.719 18.719 0 00-6.6 9.541 1.176 1.176 0 102.257.666 16.35 16.35 0 015.765-8.333A16.08 16.08 0 0130 13.775a1.177 1.177 0 000-2.353zm14.308 28.556a1.176 1.176 0 00-1.654.18 16.162 16.162 0 01-12.653 6.067 1.176 1.176 0 100 2.353 18.504 18.504 0 0014.487-6.946 1.176 1.176 0 00-.18-1.654zm1.575-1.468a1.196 1.196 0 100-2.392 1.196 1.196 0 000 2.392zm-18.179.667l-7.971-7.971c-.344-.343-.896-.086-1.288.307-.405.404-.65.944-.307 1.287l4.93 4.93-6.94-2.207c-1.104-.344-1.46-.233-2.037.343-.404.405-.637.957-.294 1.3l7.96 7.96c.33.33.894.11 1.3-.295.392-.393.625-.97.294-1.3l-4.93-4.93 7.566 2.293c.589.172 1.043-.037 1.423-.417.392-.392.625-.968.294-1.3zm6.856-7.223c-.38-.38-.894-.528-1.213-.209l-3.47 3.47-2.466-2.464 1.864-1.864c.344-.343.172-.834-.11-1.116-.331-.331-.822-.454-1.14-.135L26.16 31.5l-2.453-2.453 3.47-3.47c.32-.32.172-.834-.208-1.215-.331-.33-.846-.527-1.19-.183l-4.366 4.365c-.355.356-.527.871-.196 1.202l7.96 7.96c.33.33.845.159 1.201-.197l4.366-4.366c.343-.343.147-.858-.184-1.19zm8.683-8.241L37.959 13.57a.744.744 0 00-.123-.172c-.355-.356-1.202-.073-1.656.38-.245.245-.38.552-.208.847l4.71 8.584-5.31-3.225c-.38-.233-.871-.013-1.215.33-.355.356-.576.847-.343 1.227l3.225 5.31-8.584-4.71c-.295-.17-.601-.036-.847.21-.453.453-.735 1.3-.38 1.655.05.05.123.098.172.123l10.142 5.285c.478.258 1.116-.037 1.582-.503.454-.453.76-1.103.478-1.557l-2.514-4.108 4.096 2.526c.454.282 1.104-.025 1.558-.478.466-.467.748-1.092.502-1.582z" fill="#F04E23"/></svg>
